X: 242
T:Agnes. JaW.241
M:2/4
Q:60
S:James Winder Ms, Lancashire, 1835-41
R:Country dance
O:England
A:Wyresdale,Lancashire
H:1/8
Z:vmp.Chris Partington, Aug 2004
K:F
c2 (=B/c/d/c/|f2 e/f/g/f/|b2 (g/f/e/d/|(d2c) F|!
GAB=B|cf2(e/d/)|dc2E|F2z:|!
|:f/g/|ag/f/ (e/f/)c/A/|(d/c/).B/.G/ (d/c/).B/.G/|\
ag/f/ (e/f/).c/.A/|(d/c/).B/.G/ (d/c/).B/.G/|!
a/g/f/e/ d/c/B/A/|G/A/B/c/ d/e/f/g/|ag/f/ e/f/g/e/|f>F F:|]
